!!!COM: Bach, Johann Sebastian
!!!OPR: Die Kunst der Fuge
!!!XEN: The Art of Fugue
!!!OTL:
!!!OMV: 4
!!!SCT: BWV 1080
!!!SCA: Thematisch-systematisches Verzeichnis der musikalischen Werke Johann Sebastian Bach: Bach-Werke-Verzeichnis (Schmieder)
!!!YOR: Bach Gesellschaft Edition xxv,1
!!!EED: Frances Bennion
!!!ENC: Frances Bennion
!!!CDT: 1685/3//-1750/7/28/
!!!OCY: Deutschland
!!!YEC: Copyright (c) 1994, 2000 Center for Computer Assisted Research in the Humanities
!!!YEM: Rights to all derivative editions reserved.
!!!YEM: Refer to licensing agreement for further details.
!!!YEN: United States of America
**kern	**kern	**kern	**kern
*k[b-]	*k[b-]	*k[b-]	*k[b-]
*d:	*d:	*d:	*d:
*clefG	*clefG	*clefC	*clefC
*M2/2	*M2/2	*M2/2	*M2/2
=1	=1	=1	=1
2a	1r	1r	1r
2d	.	.	.
=2	=2	=2	=2
2f	1r	1r	1r
2a	.	.	.
=3	=3	=3	=3
2b-	1r	1r	1r
4a	.	.	.
4g	.	.	.
=4	=4	=4	=4
[2f	1r	1r	1r
8f]	.	.	.
8e	.	.	.
8f	.	.	.
8g	.	.	.
=5	=5	=5	=5
[2a	2d	1r	1r
8a]	2A	.	.
8b-	.	.	.
8a	.	.	.
8g#	.	.	.
=6	=6	=6	=6
[2a	2c	1r	1r
8a]	2e	.	.
8b-	.	.	.
8a	.	.	.
8g#	.	.	.
=7	=7	=7	=7
4a	2f	1r	1r
4dd	.	.	.
4g	4e	.	.
[4b-	4d	.	.
=8	=8	=8	=8
4b-]	[2c#	1r	1r
4e	.	.	.
4a	8c#]	.	.
.	8A	.	.
[4g	8B	.	.
.	8c#	.	.
=9	=9	=9	=9
4g]	[2d	1r	1r
4f	.	.	.
[2b-	8d]	.	.
.	8c	.	.
.	8d	.	.
.	8e	.	.
=10	=10	=10	=10
4b-]	[2f	1r	1r
4a	.	.	.
[2dd	8f]	.	.
.	8e	.	.
.	8f	.	.
.	8g	.	.
=11	=11	=11	=11
4dd]	[2a	2A	1r
4cc	.	.	.
[2b-	8a]	2D	.
.	8g	.	.
.	8f	.	.
.	8e	.	.
=12	=12	=12	=12
4b-]	[2d	2F	1r
8a	.	.	.
8g	.	.	.
[2f	8d]	2A	.
.	8e	.	.
.	8d	.	.
.	8c#	.	.
=13	=13	=13	=13
8f]	4d	2B-	1r
8ff	.	.	.
8ee	4g	.	.
8dd	.	.	.
8ee	4c#	4A	.
8ff	.	.	.
8gg	[4e	4G	.
8ee	.	.	.
=14	=14	=14	=14
2aa	4e]	[2F	1r
.	4A	.	.
4r	[2d	8F]	.
.	.	8E	.
4a	.	8F	.
.	.	8G	.
=15	=15	=15	=15
1f	8d]	[2A	2D
.	8e-	.	.
.	8d	.	.
.	8c#	.	.
.	4d	8A]	2AA
.	.	8B-	.
.	[4dd	8A	.
.	.	8G#	.
=16	=16	=16	=16
4e	4dd]	[2A	2C
4ee	8cc	.	.
.	8b	.	.
[2cc	8a	8A]	2E
.	8g	8B-	.
.	8f	8A	.
.	8e	8G#	.
=17	=17	=17	=17
8cc]	4d	4A	2F
8cc	.	.	.
8b	4.g	4d	.
8a	.	.	.
8b	.	4G	4E
8cc#	8a	.	.
4dd	8g	[4B-	4D
.	8f	.	.
=18	=18	=18	=18
[2ee	8g	4B-]	[2C#
.	8a	.	.
.	8b-	4E	.
.	8g	.	.
8ee]	[2e	4A	8C#]
8cc#	.	.	8AA
8dd	.	4G	8BB
8ee	.	.	8C#
=19	=19	=19	=19
2.a	4e]	8F	[2D
.	.	8E	.
.	8d	8F	.
.	8e	8G	.
.	[2f	4A	8D]
.	.	.	8C
4dd	.	4r	8BB-
.	.	.	8AA
=20	=20	=20	=20
2.b-	4f]	8r	[2GG
.	.	8D	.
.	4g	8E	.
.	.	8F	.
.	[2e	4G	8GG]
.	.	.	8BB-
4cc	.	4r	8AA
.	.	.	8GG
=21	=21	=21	=21
2.a	4e]	8r	[2FF
.	.	8C#	.
.	4f	8D	.
.	.	8E	.
.	[2d	4F	8FF]
.	.	.	8AA
4b-	.	4r	8GG
.	.	.	8FF
=22	=22	=22	=22
2.g	4d]	8r	[2EE
.	.	8BB	.
.	4e	8C#	.
.	.	8D	.
.	2c#	4E	8EE]
.	.	.	8GG
4a	.	4r	8FF
.	.	.	8EE
=23	=23	=23	=23
2f	2d	8r	4DD
.	.	8A	.
.	.	8B-	4D
.	.	8c	.
2r	8r	[2d	4BB-
.	8cc	.	.
.	8b-	.	4GG
.	8a	.	.
=24	=24	=24	=24
1r	[2g	8d]	4EE
.	.	8B	.
.	.	8c	4E
.	.	8d	.
.	8g]	[2e	4C
.	8dd	.	.
.	8cc	.	4AA
.	8b-	.	.
=25	=25	=25	=25
1r	[2a	8e]	4FF
.	.	8c#	.
.	.	8d	4F
.	.	8e	.
.	8a]	[2f	4D
.	8ee-	.	.
.	8dd	.	4BB-
.	8cc	.	.
=26	=26	=26	=26
1r	[2b-	8f]	4GG
.	.	8f	.
.	.	8e	4G
.	.	8d	.
.	8b-]	[2c	4E
.	8b-	.	.
.	8a	.	4C
.	8g	.	.
=27	=27	=27	=27
2cc	4f	2.c]	8AA
.	.	.	8FF
.	4e-	.	8GG
.	.	.	8AA
2f	2d	.	8BB-
.	.	.	8C
.	.	4B-	8D
.	.	.	8E
=28	=28	=28	=28
2a	8c	4A	[2F
.	8g-	.	.
.	8f	4c	.
.	8e	.	.
2cc	[2f	[2A	8F]
.	.	.	8E-
.	.	.	8D
.	.	.	8C
=29	=29	=29	=29
2dd	8f]	8A]	2BB-
.	8cc	8A	.
.	8b-	8G	.
.	8a	8F	.
4cc	8g	8E	2C
.	8a	8D	.
4b-	8g	[4E	.
.	8f	.	.
=30	=30	=30	=30
[2a	8e	4E]	2C#
.	8d	.	.
.	4e	8A	.
.	.	8G	.
8a]	4d	8F	2D
8g	.	8E	.
8a	4r	[4F	.
8b	.	.	.
=31	=31	=31	=31
2cc	2g	4F]	2C
.	.	8E	.
.	.	8D	.
2r	2c	8E	4r
.	.	8F	.
.	.	[4G	4E
=32	=32	=32	=32
4r	2e	8G]	4C
.	.	8A	.
4ee	.	2B-	8G
.	.	.	8F
[2cc	2g	.	8E
.	.	.	8D
.	.	8A	[4E-
.	.	8G	.
=33	=33	=33	=33
4cc]	2a	2F	8E-]
.	.	.	8E-
8b	.	.	8D
8cc	.	.	8C
[2dd	4g	2r	8BB
.	.	.	8GG
.	4f	.	8AA
.	.	.	8BB
=34	=34	=34	=34
8dd]	[2e	1r	4C
8g	.	.	.
8a	.	.	4BB-
8b	.	.	.
[2cc	8e]	.	2AA
.	8d	.	.
.	8e	.	.
.	8f#	.	.
=35	=35	=35	=35
4cc]	[2g	2d	8GG
.	.	.	8AA
4dd	.	.	8BB-
.	.	.	8D
2b-	8g]	2G	4G
.	8a-	.	.
.	8g	.	4r
.	8f#	.	.
=36	=36	=36	=36
4r	[2g	2B-	1r
4dd	.	.	.
4b-	8g]	2d	.
.	8a-	.	.
[4bb-	8g	.	.
.	8f#	.	.
=37	=37	=37	=37
4bb-]	4g	2e-	1r
8aa	4cc	.	.
8gg	.	.	.
8aa	4f#	4d	.
8gg	.	.	.
8ff#	[4a	4c	.
8aa	.	.	.
=38	=38	=38	=38
2dd	8a]	[2B-	1r
.	8a-	.	.
.	8g	.	.
.	8f#	.	.
4r	[2g	8B-]	.
.	.	8A	.
4dd	.	8B-	.
.	.	8c	.
=39	=39	=39	=39
4.b-	8g]	8d	2G
.	8f#	8e-	.
.	4.g	8d	.
8b-	.	8c#	.
2a	.	8d	2D
.	8g	8E	.
.	8f	8F	.
.	8e	8G	.
=40	=40	=40	=40
4r	4d	8A	2F
.	.	8D	.
4aa	2r	4.d	.
2ff	.	.	2A
.	.	8e-	.
.	4a	8d	.
.	.	8c#	.
=41	=41	=41	=41
4r	4f	8d	2B-
.	.	8f	.
4gg	4b-	8e	.
.	.	8d	.
8cc#	4.e	4a	4A
8dd	.	.	.
[4ee	.	[4c#	4G
.	8b-	.	.
=42	=42	=42	=42
8ee]	8a	4c#]	[2F
8a	8g	.	.
8b	8f	8d	.
8cc#	8g	8e	.
[2dd	[2a	[2f	8F]
.	.	.	8E
.	.	.	8F
.	.	.	8G
=43	=43	=43	=43
8dd]	8a]	4f]	2A
8b	8g#	.	.
8cc	4a	4e	.
8dd	.	.	.
[2ee	8r	[2c	4r
.	8e	.	.
.	8f	.	4A
.	8g	.	.
=44	=44	=44	=44
8ee]	2a	4c]	2F
8gg	.	.	.
8ff	.	4d	.
8ee	.	.	.
[2dd	8r	[2B	4r
.	8d	.	.
.	8e	.	4G
.	8f	.	.
=45	=45	=45	=45
8dd]	2g	4B]	2E
8ff	.	.	.
8ee	.	4c	.
8dd	.	.	.
[2cc	8r	[2A	4r
.	8c	.	.
.	8d	.	4F
.	8e	.	.
=46	=46	=46	=46
8cc]	[2f	4A]	[2D
8ee	.	.	.
8dd	.	4B	.
8cc	.	.	.
[2b	8f]	[2G#	8D]
.	8e	.	8C
.	8d	.	8BB
.	8f	.	8D
=47	=47	=47	=47
8b]	2..e	4G#]	4.C
8a	.	.	.
8g#	.	2E	.
8b	.	.	8BB
8a	.	.	4C
8b	.	.	.
[4cc	.	[4A	4AA
.	8a	.	.
=48	=48	=48	=48
8cc]	4f	4A]	4.D
8b	.	.	.
8a	[2a	2F	.
8cc	.	.	8C
8b	.	.	4D
8cc	.	.	.
[4dd	8a]	4D	4BB
.	8b	.	.
=49	=49	=49	=49
8dd]	4g#	4B	4.E
8cc	.	.	.
8b	[2b	2G#	.
8dd	.	.	8D
8cc	.	.	4E
8dd	.	.	.
[4ee	8b]	4G#	4C
.	8cc	.	.
=50	=50	=50	=50
8ee]	2.a	4A	4.F
8dd	.	.	.
8cc#	.	4e	.
8ee	.	.	8E
8dd	.	4A	4F
8ee	.	.	.
[4ff	8g#	[4d	4D
.	8a	.	.
=51	=51	=51	=51
4ff]	4b	8d]	2G#
.	.	8c	.
2ee	4dd	8B	.
.	.	8d	.
.	4g#	8c	4r
.	.	8B	.
4dd	[4b	8A	4E
.	.	8G#	.
=52	=52	=52	=52
4cc	8b]	4.A	4A
.	8a	.	.
2aa	4cc	.	4F
.	.	8B	.
.	8r	2B	4D
.	8ff	.	.
4gg#	8ee	.	4E
.	[8dd	.	.
=53	=53	=53	=53
4aa	8dd]	2A	2AA
.	8dd	.	.
4ee	8cc	.	.
.	8b	.	.
2cc	2a	8r	4r
.	.	8d	.
.	.	8c	4A
.	.	8B-	.
=54	=54	=54	=54
4r	8r	2A	2F
.	8b-	.	.
4cc	8a	.	.
.	8g	.	.
2a	2f	8r	4r
.	.	8B-	.
.	.	8A	4F
.	.	8G	.
=55	=55	=55	=55
4r	8r	2F	2D
.	8gg	.	.
4aa	8ff	.	.
.	8ee	.	.
2ff	2dd	8r	4r
.	.	8g	.
.	.	8f	4d
.	.	8e	.
=56	=56	=56	=56
4r	8r	2d	2B-
.	8ee-	.	.
4ff	8dd	.	.
.	8cc	.	.
2dd	2b-	8r	4r
.	.	8e-	.
.	.	8d	4B-
.	.	8c	.
=57	=57	=57	=57
8r	2.r	4B-	2G
8ccc	.	.	.
8bb-	.	4g	.
8aa	.	.	.
8gg	.	2e	8r
8ff	.	.	8A
8ee	4b-	.	8G
8dd	.	.	8F
=58	=58	=58	=58
4cc	[2g	8r	2E
.	.	8c	.
4dd	.	8B-	.
.	.	8A	.
[2b-	8g]	[2G	8r
.	8a	.	8F
.	8g	.	8E
.	8f	.	8D
=59	=59	=59	=59
4b-]	8e	2G]	2C
.	8cc	.	.
4gg	8b-	.	.
.	8a	.	.
[2ee	8g	8r	2r
.	8b-	8d	.
.	8a	8c	.
.	8dd	8B-	.
=60	=60	=60	=60
8ee]	4cc	2A	1r
8aa	.	.	.
8gg	4e	.	.
8ff	.	.	.
8ee	[2c	8r	.
8dd	.	8B-	.
8cc	.	8A	.
8b-	.	8G	.
=61	=61	=61	=61
8a	4c]	4A	2F
8ff	.	.	.
8ee	4a-	4B	.
8dd#	.	.	.
[2ee	8g	4c	2C
.	8dd-	.	.
.	8cc	4e	.
.	8b	.	.
=62	=62	=62	=62
8ee]	[2cc	2c	2E
8ff	.	.	.
8ee	.	.	.
8dd#	.	.	.
[2ee	8cc]	4r	2G
.	8dd-	.	.
.	8cc	4e	.
.	8b	.	.
=63	=63	=63	=63
8ee]	2..cc	2c	2B-
8gg	.	.	.
8ff#	.	.	.
8ee	.	.	.
8ff#	.	4r	4A
8gg	.	.	.
4aa	.	4e-	4G
.	[8cc	.	.
=64	=64	=64	=64
2.dd	8cc]	2A	[2F#
.	8b-	.	.
.	8a	.	.
.	8g	.	.
.	[2a	2r	8F#]
.	.	.	8D
4dd	.	.	8E
.	.	.	8F#
=65	=65	=65	=65
[2b-	8a]	2d	4G
.	8a-	.	.
.	8g	.	4D
.	8f#	.	.
8b-]	[2g	2G	2BB-
8ee-	.	.	.
8dd	.	.	.
8cc#	.	.	.
=66	=66	=66	=66
[2dd	8g]	2B-	4r
.	8a-	.	.
.	8g	.	4D
.	8f#	.	.
8dd]	4g	2d	2BB-
8ee-	.	.	.
8dd	[4g#	.	.
8cc#	.	.	.
=67	=67	=67	=67
2dd	8g#]	2f	8r
.	8a	.	8C
.	8g#	.	8BB
.	8a	.	8AA
2r	[2b	4e	8GG#
.	.	.	8EE
.	.	4d	8FF#
.	.	.	8GG#
=68	=68	=68	=68
1r	4b]	[2c#	8AA
.	.	.	8A
.	4b-	.	8G
.	.	.	8F
.	4g	8c#]	8E
.	.	8A	8F
.	4e	8B	8G
.	.	8c#	8E
=69	=69	=69	=69
1r	2.a	4d	8F
.	.	.	8G
.	.	4A	8F
.	.	.	8E
.	.	[2f	8D
.	.	.	8C
.	4d	.	8BB-
.	.	.	8AA
=70	=70	=70	=70
1r	2.b-	4f]	8GG
.	.	.	8AA
.	.	4G	8BB-
.	.	.	8GG
.	.	[2e	8C
.	.	.	8D
.	4c	.	8E
.	.	.	8C
=71	=71	=71	=71
1r	2.a	4e]	8F
.	.	.	8G
.	.	4f	8A
.	.	.	8F
.	.	[2d	8B-
.	.	.	8A
.	4b-	.	8G
.	.	.	8F
=72	=72	=72	=72
1r	[2g	8d]	8E
.	.	8f	8D
.	.	8e	8C#
.	.	8d	8BB
.	8g]	[2c#	8AA
.	8b-	.	8GG
.	8a	.	8FF
.	8g	.	8EE
=73	=73	=73	=73
1r	2a	8c#]	4DD
.	.	8e-	.
.	.	8d	4A
.	.	8c#	.
.	2d	8d	4F
.	.	8g	.
.	.	8f	4D
.	.	8e	.
=74	=74	=74	=74
1r	2f	8d	4r
.	.	8e-	.
.	.	8d	4AA
.	.	8c#	.
.	2a	8d	4FF
.	.	8g	.
.	.	8f	4DD
.	.	8e	.
=75	=75	=75	=75
1r	2cc	8d#	8r
.	.	8e	8G
.	.	8d#	8F#
.	.	8e	8E
.	4b	8f#	8D#
.	.	8e	8C#
.	4a	8f#	8D#
.	.	8d#	8BB
=76	=76	=76	=76
1r	[2g#	8B	4E
.	.	8c	.
.	.	8B	4EE
.	.	8c	.
.	8g#]	4d	4BB
.	8e	.	.
.	8f#	4B	4D
.	8g#	.	.
=77	=77	=77	=77
2ee	8a	4A	4C
.	8b-	.	.
.	8a	4e	2r
.	8g#	.	.
2a	8a	4c	.
.	8dd	.	.
.	8cc	4r	4A
.	8b	.	.
=78	=78	=78	=78
2cc	8a	4r	2F#
.	8b-	.	.
.	8a	4e	.
.	8g#	.	.
2ee	8a	4c	4r
.	8dd	.	.
.	8cc	[4e	4A
.	8b	.	.
=79	=79	=79	=79
2gg	8a#	4e]	4F#
.	8ff#	.	.
.	8ee	4A#	4C#
.	8dd	.	.
4ff#	8cc#	4r	4AA#
.	8b	.	.
4ee	8a#	8F#	4FF#
.	8cc#	8G	.
=80	=80	=80	=80
[2dd#	8f#	2A	4r
.	8g	.	.
.	8f#	.	4BB
.	8g	.	.
8dd#]	4a	4r	4F#
8b	.	.	.
8cc#	4f#	[4B	[4A
8dd#	.	.	.
=81	=81	=81	=81
[2ee	4e	8B]	4A]
.	.	8c	.
.	4b	8d	4G#
.	.	8B	.
8ee]	[2a	4c	[2A
8ff	.	.	.
8gg	.	4c#	.
8ee	.	.	.
=82	=82	=82	=82
8ff	8a]	2.d	8A]
8ee	8g#	.	8B
4.dd	8f#	.	8c
.	8a	.	8A
.	4g#	.	4B
8ee	.	.	.
8ff	4a	4c	4A
8dd	.	.	.
=83	=83	=83	=83
8ee	4b	4B	4G#
8dd	.	.	.
4.cc	8a	4e	4E
.	8g#	.	.
.	[2a	8c	4F
8dd	.	8B	.
8ee-	.	4c	[4F#
8cc	.	.	.
=84	=84	=84	=84
8dd	4a]	4A	4F#]
8cc	.	.	.
4.b	8g	4d	2G
.	8f#	.	.
.	4g	4e-	.
8cc	.	.	.
8dd	4r	[4f	[4A-
8b	.	.	.
=85	=85	=85	=85
[1cc	4r	8f]	4A-]
.	.	8B	.
.	4.f#	8c	4.A
.	.	8d	.
.	.	[2e-	.
.	8g	.	8G
.	8a	.	8F#
.	8f#	.	8A
=86	=86	=86	=86
2cc]	4g	8e-]	2G
.	.	[2d	.
.	8f	.	.
.	8a-	.	.
2b	8g	.	2GG
.	8f	8d]	.
.	8e	[4G	.
.	8d	.	.
=87	=87	=87	=87
2cc	4e	8G]	2C
.	.	8G	.
.	4g	8A	.
.	.	8B	.
4r	4e	4c	8r
.	.	.	8C
4cc	[4g	4r	8D
.	.	.	8E
=88	=88	=88	=88
2a	8g]	4r	2F
.	8g	.	.
.	8f	4c	.
.	8e	.	.
4r	4f	2A	8r
.	.	.	8G
4aa	4r	.	8F
.	.	.	8E
=89	=89	=89	=89
2ff	4r	8r	2D
.	.	8A	.
.	4a	8B	.
.	.	8c#	.
4r	4f	4d	8r
.	.	.	8D
4dd	[4a	4r	8E
.	.	.	8F
=90	=90	=90	=90
2b	8a]	4r	2G
.	8a	.	.
.	8g	4d	.
.	8f#	.	.
4r	2g	2B	8r
.	.	.	8A
4dd	.	.	8G
.	.	.	8F
=91	=91	=91	=91
[1gg	4r	8r	2E
.	.	8B	.
.	4ee	8c#	.
.	.	8d	.
.	4cc#	4e	8r
.	.	.	8E
.	[4dd	4b-	8F
.	.	.	8G
=92	=92	=92	=92
2gg_	8dd]	8e	2A
.	8b	8d	.
.	8cc#	4e	.
.	8dd	.	.
8gg]	[2ee	2c#	4r
8gg]	.	.	.
8ff	.	.	4A
8ee	.	.	.
=93	=93	=93	=93
2ff	8ee]	4r	2D
.	8ee	.	.
.	8dd	4A	.
.	8cc#	.	.
8r	2dd	2F	8r
8gg	.	.	8D
8aa	.	.	8C
8bb-	.	.	8BB-
=94	=94	=94	=94
8ccc	2r	4r	4AA
8ff	.	.	.
8ee-	.	4c	2r
8dd	.	.	.
[2ee-	8r	4A	.
.	8b-	.	.
.	8a	4c	4F
.	8g	.	.
=95	=95	=95	=95
4ee-]	8f	4r	2BB-
.	8cc	.	.
4dd	8b-	4F	.
.	8a	.	.
8r	4b-	2D	8r
8ee	.	.	8BB-
8ff#	4r	.	8AA
8gg	.	.	8GG
=96	=96	=96	=96
8aa	2r	4r	4FF#
8dd	.	.	.
8cc	.	4A	2r
8b-	.	.	.
[2cc	8r	4F#	.
.	8g	.	.
.	8f#	[4A	4D
.	8e	.	.
=97	=97	=97	=97
8cc]	4d	4A]	4GG
8b-	.	.	.
8cc	4.r	8G	4AA
8ee-	.	8F#	.
[2dd	.	[2G	4BB-
.	8g	.	.
.	8a	.	4GG
.	8b-	.	.
=98	=98	=98	=98
4dd]	4e-	8G]	4C
.	.	8F#	.
8cc	4.r	8G	4E-
8dd	.	8B-	.
[2ee-	.	[2A	4C
.	8a	.	.
.	8b-	.	4AA
.	8cc	.	.
=99	=99	=99	=99
4ee-]	4f#	8A]	4D
.	.	8G	.
8dd	4.r	8A	4F#
8ee-	.	8c	.
[2ff	.	[2B-	4D
.	8b-	.	.
.	8dd	.	4BB-
.	8a-	.	.
=100	=100	=100	=100
4ff]	4g	8B-]	4E-
.	.	8A	.
8ee-	4.r	8B-	4G
8ff	.	8d	.
[2gg	.	[2c	4E
.	8a	.	.
.	8b-	.	4C
.	8g	.	.
=101	=101	=101	=101
4gg]	4a	8c]	4F
.	.	8B-	.
8ff	2.r	8c	4A
8gg	.	8e-	.
[2aa	.	8d	4F#
.	.	8c	.
.	.	8B-	4D
.	.	8A	.
=102	=102	=102	=102
8aa]	2r	4.B-	4G
8dd	.	.	.
2gg	.	.	4E-
.	.	8c	.
.	8r	2A	4C
.	8ee-	.	.
4ff#	8dd	.	4D
.	8cc	.	.
=103	=103	=103	=103
4gg	4b-	8G	4G
.	.	8e-	.
2r	4.r	8d	4B-
.	.	8c	.
.	.	2B-	2G
.	8cc	.	.
4gg	8b-	.	.
.	8a	.	.
=104	=104	=104	=104
2ee	2g	8r	4r
.	.	8c	.
.	.	8B-	4G
.	.	8A	.
8r	4r	2G	2E
8ff	.	.	.
8ee	4g	.	.
8dd	.	.	.
=105	=105	=105	=105
2cc	2e	8r	4r
.	.	8d	.
.	.	8c	4A
.	.	8B-	.
4r	8r	2A	2F
.	8b-	.	.
4cc	8a	.	.
.	8g	.	.
=106	=106	=106	=106
2a	2f	8r	4r
.	.	8B-	.
.	.	8A	4F
.	.	8G	.
8r	4r	2F	[2D
8gg	.	.	.
8ff	4a	.	.
8ee	.	.	.
=107	=107	=107	=107
8dd	[2f	2A	4D]
8ee-	.	.	.
8dd	.	.	2F
8cc#	.	.	.
[2dd	8f]	2D	.
.	8g	.	.
.	8f	.	[4BB-
.	8e	.	.
=108	=108	=108	=108
8dd]	4d	2F	4BB-]
8ee-	.	.	.
8dd	4.f	.	2D
8cc#	.	.	.
[2dd	.	2A	.
.	8g	.	.
.	8f	.	[4F
.	8e	.	.
=109	=109	=109	=109
8dd]	4d	2B-	4F]
8ee-	.	.	.
8dd	4e	.	4.G
8cc#	.	.	.
4.dd	8f	4A	.
.	8a	.	4F
.	8b	4G	.
8ee	8cc#	.	8E
=110	=110	=110	=110
4ff	4dd	[2F	[2D
4aa	4ff	.	.
4ff	4dd	8F]	8D]
.	.	8E	8C#
4r	4a	8F	8D
.	.	8G	8E
=111	=111	=111	=111
4dd	2f	8A	[2F
.	.	8B-	.
2a	.	8A	.
.	.	8G#	.
.	2c	[2A	8F]
.	.	.	8F
[4cc	.	.	8E
.	.	.	8D
=112	=112	=112	=112
4cc]	2e	8A]	[2C
.	.	8A	.
2ee	.	8G	.
.	.	8F	.
.	2g#	4E	8C]
.	.	.	4BB
[4ff	.	[4D	.
.	.	.	8BB-
=113	=113	=113	=113
4ff]	2a	8D]	[1AA
.	.	8E	.
2ee	.	8D	.
.	.	8C#	.
.	4g	8D	.
.	.	8E	.
[4dd	4f	8F	.
.	.	8G	.
=114	=114	=114	=114
4dd]	[2e	8A	8AA]
.	.	2..r	8G
4.cc#	.	.	8A
.	.	.	8B-
.	8e]	.	8A
8a	8c#	.	8G
8b	8d	.	8F
8cc#	8e	.	8E
=115	=115	=115	=115
2dd	4A	8r	2F#
.	.	8c	.
.	4a	8d	.
.	.	8e-	.
4r	2f#	8d	4r
.	.	8c	.
4dd	.	8B-	4D
.	.	8A	.
=116	=116	=116	=116
2b-	8r	4G	4GG
.	8f#	.	.
.	8g	4d	2r
.	8a	.	.
2r	8g	[2B-	.
.	8f	.	.
.	8e	.	4G
.	8d	.	.
=117	=117	=117	=117
8r	4c	8B-]	2E
8b-	.	8G	.
8cc	2.r	8A	.
8dd	.	8B-	.
8cc	.	8A	4r
8b-	.	8G	.
8a	.	8F	4C
8g	.	8E	.
=118	=118	=118	=118
[1a	8r	[1F	4F
.	8e	.	.
.	8f	.	4C
.	8g	.	.
.	8f	.	4AA
.	8e-	.	.
.	8d	.	4FF
.	8c#	.	.
=119	=119	=119	=119
4a]	4d	8F]	[2BB-
.	.	8F	.
4g	2r	8E	.
.	.	8D	.
[2cc	.	4E	8BB-]
.	.	.	8AA
.	4e	[4G	8GG
.	.	.	8BB-
=120	=120	=120	=120
4cc]	4c	4G]	8AA
.	.	.	8BB
4a	2r	8F#	4.C
.	.	8E	.
[2dd	.	4F#	.
.	.	.	8BB
.	4f#	[4A	8AA
.	.	.	8C
=121	=121	=121	=121
4dd]	4d	4A]	8BB
.	.	.	8C#
4b	2r	8G#	4.D
.	.	8F#	.
[2ee	.	4G#	.
.	.	.	8C#
.	4g#	[4B	8BB
.	.	.	8D
=122	=122	=122	=122
8ee]	4e	4B]	8C#
8ff	.	.	8D
8gg	2.r	4B-	4.E
8dd	.	.	.
8cc#	.	[2A	.
8bb-	.	.	8D
8aa	.	.	8C#
8gg	.	.	8E
=123	=123	=123	=123
[1ff	8r	4A]	4D
.	8dd	.	.
.	8cc#	4G	4E
.	8ee	.	.
.	8dd	4A	4F
.	8cc	.	.
.	8b-	[4d	4D
.	8a	.	.
=124	=124	=124	=124
4ff]	8b-	4d]	2G
.	8a	.	.
8ee	4.g	4B-	.
8dd	.	.	.
[2ee	.	4G	4r
.	8a	.	.
.	8b-	4E	4C
.	8g	.	.
=125	=125	=125	=125
4ee]	8a	4r	2F
.	8g	.	.
8dd	4.f	4A	.
8cc#	.	.	.
[2dd	.	4F	4r
.	8g	.	.
.	8a	4D	4FF
.	8f	.	.
=126	=126	=126	=126
4dd]	8g	4r	[2BB-
.	8f	.	.
8cc	4.e-	4G	.
8b-	.	.	.
[2cc	.	4E-	8BB-]
.	8f#	.	8AA
.	8g	4C	8BB-
.	8e	.	8GG
=127	=127	=127	=127
2cc_	8f#	[2D	8BB-
.	8g	.	8AA
.	4a	.	8GG
.	.	.	8FF#
8cc]	4d	8D]	[2GG
8b-	.	8D	.
8cc]	4r	8E	.
8a	.	8F#	.
=128	=128	=128	=128
8b-	1r	4G	8GG]
8dd	.	.	8FF#
8ee-	.	2.r	8GG
8cc	.	.	8AA
8dd	.	.	8BB-
8gg	.	.	8GG
8dd	.	.	8BB-
[8cc	.	.	8D
=129	=129	=129	=129
8cc]	4r	2d	[1G
8b-	.	.	.
8cc	4A	.	.
8ee-	.	.	.
8dd	4B-	2G	.
8cc	.	.	.
8b-	4c	.	.
8a	.	.	.
=130	=130	=130	=130
8g	2d	2B-	8G]
8f#	.	.	8D
4g	.	.	8C
.	.	.	8AA
4r	4r	2d	8BB-
.	.	.	8D
4a	4A	.	8GG
.	.	.	8FF
=131	=131	=131	=131
2g#	2B	2f	8EE
.	.	.	8E
.	.	.	8D
.	.	.	8BB
4a	4r	4e	8C
.	.	.	8E
4r	[4f	4d	8AA
.	.	.	8GG#
=132	=132	=132	=132
2r	4f]	[2c#	8AA
.	.	.	8A
.	4e	.	8G
.	.	.	8E
8r	2r	8c#]	[2F
8aa	.	8A	.
8gg	.	8B	.
8ee	.	8c#	.
=133	=133	=133	=133
8ff	2a	4d	2F]
8aa	.	.	.
8dd	.	4.A	.
8cc#	.	.	.
[2dd	2d	.	2BB-
.	.	8B-	.
.	.	8A	.
.	.	8G#	.
=134	=134	=134	=134
8dd]	2f	8A	1AA
8ff	.	8BB	.
8ee	.	8C#	.
8dd	.	8D	.
8cc#	2a	8E	.
8dd	.	8F	.
8b	.	8G	.
8cc#	.	8E	.
=135	=135	=135	=135
4.dd	2b-	8F#	[1D
.	.	8A	.
.	.	4.G	.
8cc#	.	.	.
4.dd	4a	.	.
.	.	8F#	.
.	4g	[4B-	.
8cc#	.	.	.
=136	=136	=136	=136
4.dd	[2f#	8B-]	1D_
.	.	8A	.
.	.	2c	.
8ee-	.	.	.
4a	8f#]	.	.
.	8d	.	.
4r	8e	8B	.
.	8f#	8A	.
=137	=137	=137	=137
8r	[2g	4B	1D_
8dd	.	.	.
8ee	.	2B-	.
8gg	.	.	.
2cc#	8g]	.	.
.	8f#	.	.
.	8g	8A	.
.	8e	8G	.
=138	=138	=138	=138
1dd	1f#	1A	1D]
==	==	==	==
*-	*-	*-	*-
!!!RWG1: This file contains only pitch and duration data.
!!!RWG2: Transposing instruments are not transposed.
!!!RWG3: Spines may have incompatible meters.
!!!RWG4: Durations of rests and tied notes may be interpreted.
!!!RWG: Key is interpreted using the Humdrum key tool.
!!!AFT: stage1
!!!END: 1997/04/15/
!!format changes:
!!content changes:
!!public access: complete
!!!KEY: 2547362837
!!!EMD: Converted from MuseData to Humdrum Dec 19, 2000, by Andreas Kornstaedt using muse2kern.
